X:1
T:35
T:Hugo Distler
T:Rev. 14:13
T:35.  Blessed Are the Dead Selig sind die Toten All Souls Day
T:Bärenreiter
T:Bärenreiter
T:Bärenreiter
T:Bärenreiter
T:Bärenreiter
C:Hugo Distler
Z:Rev. 14:13
Z:Bärenreiter
%%score 1 [ 2 3 4 ]
L:1/8
Q:1/4=100
M:none
K:C
V:1 treble nm="Solo"
V:2 treble nm="Sop."
V:3 treble nm="Alto"
V:4 bass nm="Bar."
V:1
"^(Restful quarters)""^(4)" (_B4!p! |!<(! _A6 F2 A2 _B2 _d2 B2 A2!<)!!>(! B6) | !breath!_B8!>)! | %3
w: Bles-||sed,|
 z18 |!mp!!<(! (_B4 c2 _e4!<)! =d3!>(! c B2 | c4) !breath!d8!>)! x4 | z8!mf!!<(! (_B6 G2 | %7
w: |bles- * * * * *|* sed,|bles- *|
 _B2 c2 _e4!<)! d3!>(! cB_A B4) | !breath!c8!>)! z6!p! c2 | %9
w: |sed, which|
 (f4 _e2) cc (_d4 !breath!c2)"^(Very quietly)" _B2 c4 B6!fine! || z2 |[M:4/4] z8 | z8 | z8 | %14
w: die _ in the Lord _ from hence- forth.|||||
[M:3/2] z12 ||[M:3/4][Q:1/4=108]"^Moderato" z6 | z6 | z6 | z6 | z6 | z6 | z6 | z6 | z6 | z6 | z6 | %26
w: ||||||||||||
 z6 | z6 | z6 |] %29
w: |||
V:2
"^(Choir always quite softly, as an echo)""^(4)" x4 | z24 | _G4 G2 F_E | !breath!F6 F2 _A4 A2 _G4 | %4
w: ||Bles- sed are the|dead which die in the|
 F8 z8 | x4 D4 D2 DC D4- | !breath!DD F4 _E2 =G4 D4- | D4 z8 x6 | %8
w: Lord,|bles- sed are the dead|_ which die in the Lord,|_|
 c4 c2 cc!>(! (_d4 !breath!c2)!>)! c2 | (f4 _e2) cc (_d4 !breath!c2) _B4 =A2 B6 || z2 | %11
w: bles- sed are the dead _ which|die _ in the Lord _ from hence- forth.||
[M:4/4]"^(Even more quietly)" z2"^(Delicately)" F2 (G2 _B2- | B2 A3 G F2 | G3 FGA _B2 | %14
w: They rest, _|_ _ _ _||
[M:3/2] _B)BBB!>(! c4 d4!>)! ||[M:3/4]!mf! =d2 d2 d2 | (_e2 d2) c2- | c_B c2 c2 | !breath!_B6 | %19
w: * rest from their la- bors.|And all their|works _ fol-|* low af- ter|them,|
"^(poco )"!f! =d2 d2 d2 | (_e2 d2) c2- | c_B c2 c2 | !breath!_B6 | %23
w: and all their|works _ fol-|* low af- ter|them,|
"^(piu )"!f!"^(Broaden)" =d2 d2 d2 | _e4 (d2- | d2 c2) _B2 | c2 c4 | d6- | d6 |] %29
w: and all their|works fol-|* * low|af- ter|them.|_|
V:3
"^(4)" x4 | z24 | _E4 _D2 C_B, | !breath!C6 =D2 C4 F4 _E2 | F8 z8 | %5
w: ||Bles- sed are the|dead which die in the|Lord,|
 x4 D4 C2 _B,B, !breath!A,2 A,2 | (_B,2 C2 D2) (_E3 D) C2 D4- | D4 z8 x6 | %8
w: bles- sed are the dead which|die _ _ in _ the Lord|_|
 G4 G2 GG!>(! (_A4 !breath!G2)!>)! G2 | _A4 GG (F4 !breath!G2) =A2 _B2 F4- F6 || z2 | %11
w: bles- sed are the dead _ which|die in the Lord _ from hence- forth. _||
[M:4/4] z2"^(Delicately)" _B,2 (D3 _E | FG F3 _E D2 | C2 D3 _EFG |[M:3/2] F)FFF!>(! _E4 F4!>)! || %15
w: They rest, _|_ _ _ _ _||* rest from their la- bors.|
[M:3/4] z6 |!mf! G2 G2 G2 | (_A2 G2) F2- | FF _E2 G2 | !breath!F6 |"^(poco )"!f! G2 G2 G2 | %21
w: |And all their|works _ fol-|* low af- ter|them,|and all their|
 (_A2 G2) F2- | FF _E2 G2 | !breath!F6 |"^(piu )"!f! G2 G2 G2 | (_B3 _A GF | _E6) | %27
w: works _ fol-|* low af- ter|them,|and all their|works _ _ _|_|
 F3 G !tenuto!=A2- | A2 !tenuto!A2 !tenuto!=B2 |] %29
w: fol- low af-|* ter them.|
V:4
"^(4)" x4 | z24 | _E,4 E,2 E,E, | !breath!_B,6 B,2 F,4 F,2 B,4 | _B,8 z8 | %5
w: ||Bles- sed are the|dead which die in the|Lord,|
 x4 G,4 G,2 F,2 G,2 !breath!D,2 | D, D,2 D, D,2 C,2 _E,4 G,4- | G,4 z8 x6 | %8
w: bles- sed are the dead|which die, which die in the Lord,|_|
 C4 C2 CC!>(! (_B,4 !breath!C2)!>)! (CB,) | (_D3 C _B,2) _A,A, (B,4 !breath!F,2) F,2 F,4 B,6 || %10
w: bles- sed are the dead _ which _|die _ _ in the Lord _ from hence- forth.|
 _B,2 |[M:4/4]"^(Delicately)" (F,4 !breath!_B,2) B,2 | (F,4 !breath!_B,2) B,2 | %13
w: They|rest, _ they|rest, _ they|
 (F,4 !breath!_B,2) B,2 |[M:3/2] F,2 G,2!>(! _A,4 _B,4!>)! ||[M:3/4] z6 | z6 |!mf! C2 C2 C2 | %18
w: rest, _ rest|from their la- bors.|||And all their|
 (_D2 C2) _B,2- | B,_B, B,2 _A,2 | C4 z2 |"^(poco )"!f! C2 C2 C2 | (_D2 C2) _B,2- | %23
w: works _ fol-|* low af- ter|them,|and all their|works _ fol-|
 B,_B, B,2 _A,2 | C4 z2 | z6 |"^(piu )"!f! (C3 _B, _A,G, | F,2) _E,2 !tenuto!F,2- | %28
w: * low af- ter|them,||fol- * * *|* low af-|
 F,2 !tenuto!F,2 !tenuto!G,2 |] %29
w: * ter them.|

